X:437
T:Starry Night in Shetland 2nd Fiddle
R:Waltz
C:2nd Violin
M:3/4
L:1/4
K:D
|A|: "D" f2 d | A B A| "G" G2 G| "Em" E2 D | "A" C2 E | G2 G| "D" F2 G|"A" A2 A |!
|"D" f2 d| A B A| "G" G2 G |"Em"  E2 D| "A" C2 C/D/| E G A | "D" F3 |1"A"G3 :|2 "D7" F2 G/A/ |!
|: "G" B G B | B G B| "D" A F A| A F A| "D" d A d| "B" f e ^d | "E" =d3 | "A" c B c |!
"D" d2 F| "D" F2 D | "G" B,2 B, | "Em"  E2 D | "A" C E A |  B G  A/G/ |"D" F3 |1 "D7" F2  G/A/:|2" D7" F2||
